X:50
T:Webers Last Waltz
S:John Moore's Book 2
Z:Transcribed Steve Mansfield 04/2021
%%VWML: Moore2-4494-p38-0
F:http://www.vwml.org/record/Moore2/4494/p38
M:3/4
L:1/8
N: agc half-length bar in Mss, cf 4 bars later
K:G
(dg) | (gf) (fe) (ce) | (ed) (dB) (GB) | (BA) (BA) (BA) | (AG) (AG) (dg) | |
(gf) (fe) (ce) | (ed) (dB) (GB) | (BA) (BA) (BA) | G4 :: (BA) | 
.A.A EG DG | .A.A EG DG | DGBG BG | AGBG BG | 
Aaea da | Aaea da | dgbg af | g4 :|
|: gf | e3 (efg) | "*"a2g2c2 | (ed) (ed) (ed) | dcec g>f | 
e3 efg | a2g2c2 | (ed) (dd) (ed) | B4 :|

